X: 42578
T: When Wars Alarmes
R: reel
M: 4/4
K: Gmajor
d2 Be A3c|BG EA GF ED|G2 G2 G>A B>c|{Bc}d2 cB B2 A2|
d2 Be A3c|BG EA GF ED|G2 G2 G>AB>c|B2 A2 G4:|
|:e2 e^d eB cB|c2 cB BA GE|c2 F2 B2 e2|BA GF ~E3F|
G2 G2 Ge2d|(3dcB (3BAG GF2D|d2 Be A2 (3ABc|B2 A2 G4:|

